svg/u270d_1f3fc.svg

<svg viewBox="0 0 128 128" xmlns="http://www.w3.org/2000/svg" xmlns:xlink="http://www.w3.org/1999/xlink">
  <linearGradient id="g" gradientTransform="matrix(1.0274 0 0 1.0036 6.5985 3.4483)" gradientUnits="userSpaceOnUse" x1="-1.2306" x2="114.27" y1="73.881" y2="73.881">
    <stop offset="0" stop-color="#E0BB95"/>
    <stop offset=".4107" stop-color="#DEB892"/>
    <stop offset=".7432" stop-color="#D6B088"/>
    <stop offset="1" stop-color="#CCA47A"/>
  </linearGradient>
  <path d="m124 72.49c0-3-2.43-5.46-5.52-5.61-2.48-0.12-8.65 1.45-12.14-0.19-8.61-4.05-44.1-22.73-44.1-22.73-3.12-1.69-10.77-4.19-14.65-3.22l-28.3 11.28c-2.76 0.69-5 2.36-6.43 4.53-1.04 1.18-2.18 9.38-3.74 16.83s-3.47 12.38-3.47 12.38c-1.54 5.68 2.95 9.49 6.94 10.17s9.21-1.77 10.75-7.46l3.28-15.74c0.53-2.56 2.64-4.52 5.28-4.91l9.97 0.36-3.51 17.95s17.76 22.73 42.87 28.12c9.21 1.98 17.78-3.78 24.38-4.19 3.05-0.19 9.39 0.48 12.18 1.29 3.1 0.9 6.22-1.38 6.22-4.51v-34.35z" fill="url(#g)"/>
  <linearGradient id="f" gradientUnits="userSpaceOnUse" x1="20.633" x2="104.68" y1="104.23" y2="104.23">
    <stop offset="0" stop-color="#CCA47A"/>
    <stop offset="1" stop-color="#CCA47A"/>
  </linearGradient>
  <path d="m87.7 115.75c-6.36-0.12-16.11-3.73-22.81-6.67-4.95-2.17-10.58-2.39-15.69-0.58l-5.13 1.81c-4.87 1.72-10.33 0.1-13.37-3.97l-10.07-13.47 84.05-0.17s-1.54 23.35-16.98 23.05z" fill="url(#f)"/>
  <path d="m40.57 72.75 15.02-24.84-0.1 4.15c-0.1 4.24 2.67 8.05 6.83 9.4l-21.75 11.29z" fill="#BA8F63"/>
  <path d="m23.62 110.95-17.18 12.7c-1.22 0.9-2.74-0.07-2.39-1.53l4.73-19.74c0.11-0.45 0.29-0.9 0.54-1.3l56.96-94.86c1.21-2.01 3.68-2.81 5.52-1.77l8.77 4.95c1.84 1.04 2.35 3.51 1.14 5.53l-56.86 94.65c-0.31 0.54-0.73 1.01-1.23 1.37z" fill="#1E88E5"/>
  <radialGradient id="e" cx="34.449" cy="67.098" gradientUnits="userSpaceOnUse" r="44.572">
    <stop offset=".6" stop-color="#E0BB95"/>
    <stop offset="1" stop-color="#CCA47A"/>
  </radialGradient>
  <path d="m87.73 114.25c-6.92-0.13-17.86-4.62-22.24-6.55-2.91-1.28-6-1.92-9.19-1.92-2.6 0-5.16 0.44-7.6 1.3l-5.13 1.81c-1.12 0.39-2.28 0.59-3.47 0.59-3.24 0-6.3-1.51-8.2-4.04l-1.36-1.81c-0.29-0.38-0.73-0.6-1.2-0.6-0.05 0-0.1 0-0.15 0.01-0.35 0.03-0.69 0.05-1.03 0.05-2.76 0-4.73-1.15-5.85-3.42-0.94-1.91-1.06-3.95-0.36-5.9 0.24-0.66-0.01-1.39-0.6-1.77-0.25-0.16-0.53-0.24-0.81-0.24-0.38 0-0.76 0.14-1.05 0.42-1.54 1.5-3.58 2.35-5.6 2.35-0.37 0-0.73-0.03-1.07-0.09-2.06-0.35-4-1.61-5.08-3.29-0.93-1.46-1.16-3.12-0.68-4.94 0.26-0.69 2.03-5.46 3.51-12.52 0.5-2.38 0.94-4.77 1.37-7.09 0.69-3.7 1.54-8.31 2.06-9.1 0.05-0.05 0.05-0.06 0.09-0.12 1.29-1.95 3.26-3.33 5.55-3.91 0.07-0.02 0.13-0.04 0.19-0.06l28.21-11.24c0.44-0.1 0.97-0.15 1.59-0.15 3.79 0 9.44 1.93 11.89 3.26 0.37 0.2 35.63 18.75 44.17 22.77 1.28 0.6 2.92 0.9 4.99 0.9 1.67 0 3.35-0.19 4.84-0.35 1.08-0.12 2.01-0.22 2.67-0.22h0.21c2.29 0.11 4.09 1.91 4.09 4.11v34.35c0 0.86-0.35 1.67-0.98 2.27s-1.48 0.94-2.35 0.94c-0.32 0-0.65-0.05-0.97-0.14-2.53-0.74-7.86-1.38-11.41-1.38-0.47 0-0.9 0.01-1.28 0.04-2.65 0.16-5.49 1.09-8.5 2.08l-0.61 0.2c-0.21 0.07-0.4 0.18-0.56 0.33-2.2 2.04-4.85 3.08-7.86 3.08l-0.24-0.01zm-65.82-26.24c-0.09 0.34-0.18 0.61-0.28 0.87-0.24 0.66 0.01 1.4 0.61 1.78 0.25 0.16 0.53 0.23 0.8 0.23 0.39 0 0.78-0.15 1.07-0.45 0.8-0.81 1.74-1.51 2.78-2.07l13.65-8.12c0.37-0.22 0.62-0.58 0.7-1l2.11-10.77c0.09-0.46-0.04-0.94-0.36-1.29-0.29-0.32-0.69-0.49-1.11-0.49-0.05 0-0.09 0-0.14 0.01l-8.55 0.8c-3.3 0.48-5.91 2.89-6.6 6.01l-4.68 14.49z" fill="url(#e)"/>
  <path d="m49.64 43.52c3.41 0 8.81 1.79 11.21 3.09 1.45 0.76 35.64 18.76 44.22 22.79 1.49 0.7 3.33 1.04 5.63 1.04 1.76 0 3.48-0.19 5-0.36 0.99-0.11 1.93-0.21 2.5-0.21h0.14c1.49 0.07 2.66 1.22 2.66 2.61v34.35c0 1.03-0.95 1.71-1.83 1.71-0.18 0-0.37-0.03-0.55-0.08-2.92-0.85-8.58-1.44-11.83-1.44-0.5 0-0.96 0.01-1.37 0.04-2.84 0.18-5.77 1.13-8.87 2.15l-0.61 0.2c-0.41 0.13-0.79 0.36-1.11 0.65-1.94 1.8-4.18 2.68-6.83 2.68h-0.24c-4.61-0.09-12.71-2.49-21.67-6.42-3.1-1.36-6.39-2.05-9.79-2.05-2.77 0-5.5 0.47-8.1 1.39l-5.13 1.81c-0.96 0.34-1.96 0.51-2.97 0.51-2.77 0-5.38-1.29-7-3.44l-1.36-1.81c-0.57-0.76-1.46-1.2-2.4-1.2-0.1 0-0.19 0-0.29 0.01-0.3 0.03-0.6 0.04-0.88 0.04-2.9 0-3.96-1.47-4.5-2.58-0.77-1.55-0.87-3.15-0.29-4.73 0.23-0.63 0.23-1.3 0.04-1.91 0.65-0.08 1.27-0.38 1.76-0.87 0.7-0.71 1.52-1.32 2.42-1.81 0.04-0.02 0.07-0.04 0.1-0.06l13.6-8.09c0.73-0.44 1.25-1.16 1.41-2l2.11-10.77c0.18-0.93-0.08-1.89-0.72-2.59-0.57-0.63-1.38-0.99-2.22-0.99-0.09 0-0.19 0-0.28 0.01l-8.56 0.81c-0.05 0.01-0.11 0.01-0.16 0.02-3.81 0.56-6.9 3.4-7.75 7.09l-4.65 14.44c-0.01 0.04-0.03 0.09-0.04 0.13-0.05 0.2-0.12 0.42-0.22 0.68-0.23 0.64-0.24 1.31-0.05 1.92-0.63 0.08-1.23 0.36-1.71 0.83-1.24 1.21-2.95 1.93-4.56 1.93-0.28 0-0.56-0.02-0.82-0.07-1.63-0.28-3.23-1.3-4.07-2.62-0.68-1.07-0.86-2.31-0.51-3.68 0.36-0.96 2.09-5.74 3.54-12.67 0.5-2.4 0.95-4.8 1.38-7.13 0.62-3.35 1.39-7.51 1.86-8.56 0.02-0.03 0.05-0.07 0.07-0.1 1.08-1.63 2.74-2.8 4.66-3.28 0.13-0.03 0.26-0.07 0.38-0.12l28.08-11.2c0.26-0.04 0.64-0.09 1.17-0.09m0-3c-0.75 0-1.44 0.07-2.04 0.22l-28.3 11.28c-2.76 0.69-5 2.36-6.43 4.53-1.04 1.18-2.18 9.38-3.74 16.83-1.56 7.46-3.47 12.37-3.47 12.37-1.54 5.68 2.95 9.49 6.94 10.17 0.43 0.07 0.87 0.11 1.32 0.11 2.27 0 4.74-0.92 6.65-2.78-0.8 2.22-0.75 4.68 0.43 7.07 1.5 3.04 4.18 4.25 7.19 4.25 0.39 0 0.78-0.02 1.17-0.06l1.36 1.81c2.23 2.98 5.76 4.65 9.4 4.65 1.33 0 2.67-0.22 3.97-0.68l5.13-1.81c2.3-0.81 4.7-1.21 7.1-1.21 2.93 0 5.86 0.6 8.59 1.8 6.7 2.94 16.46 6.55 22.81 6.67h0.29c3.72 0 6.62-1.39 8.87-3.48 3.17-1.03 6.11-2.04 8.74-2.21 0.35-0.02 0.75-0.03 1.19-0.03 3.29 0 8.53 0.61 10.99 1.32 0.47 0.14 0.93 0.2 1.39 0.2 2.58 0 4.83-2.05 4.83-4.71v-34.34c0-3-2.43-5.46-5.52-5.61-0.09 0-0.19-0.01-0.28-0.01-1.69 0-4.68 0.57-7.5 0.57-1.6 0-3.13-0.18-4.35-0.75-8.61-4.05-44.1-22.73-44.1-22.73-2.66-1.43-8.54-3.44-12.63-3.44zm-26.6 48.87c0.11-0.3 0.21-0.6 0.3-0.92l4.7-14.57c0.53-2.56 2.64-4.52 5.28-4.91l8.55-0.8-2.11 10.77-13.6 8.09c-1.18 0.65-2.23 1.44-3.12 2.34z" fill="#BA8F63"/>
  <linearGradient id="d" gradientUnits="userSpaceOnUse" x1="67.412" x2="15.176" y1="18.589" y2="112.62">
    <stop offset="0" stop-color="#64B5F6"/>
    <stop offset="1" stop-color="#2196F3"/>
  </linearGradient>
  <path d="m23.62 110.95-17.18 12.7c-1.22 0.9-2.74-0.07-2.39-1.53l4.73-19.74c0.11-0.45 0.29-0.9 0.54-1.3l56.96-94.86c1.21-2.01 3.68-2.81 5.52-1.77l8.77 4.95c1.84 1.04 2.35 3.51 1.14 5.53l-56.86 94.65c-0.31 0.54-0.73 1.01-1.23 1.37z" fill="url(#d)"/>
  <g opacity=".2">
    <path d="m70.04 7c0.11 0 0.21 0.02 0.29 0.07l8.77 4.95c0.04 0.02 0.17 0.1 0.24 0.34 0.04 0.15 0.1 0.54-0.2 1.03l-56.86 94.66c-0.12 0.19-0.27 0.37-0.45 0.5l-13.91 10.28 3.77-15.75c0.04-0.16 0.1-0.31 0.19-0.46l56.98-94.85c0.31-0.53 0.82-0.77 1.18-0.77m0-3c-1.44 0-2.91 0.81-3.76 2.22l-56.97 94.85c-0.25 0.41-0.43 0.85-0.54 1.3l-4.73 19.74c-0.25 1.08 0.5 1.89 1.4 1.89 0.33 0 0.68-0.11 1-0.35l17.18-12.7c0.5-0.37 0.92-0.83 1.24-1.37l56.86-94.65c1.21-2.01 0.7-4.49-1.14-5.53l-8.77-4.95c-0.55-0.3-1.16-0.45-1.77-0.45z" fill="#424242"/>
  </g>
  <radialGradient id="c" cx="47.453" cy="76.114" gradientTransform="matrix(1.0356 0 0 1.0036 7.9395 3.4483)" gradientUnits="userSpaceOnUse" r="35.227">
    <stop offset="0" stop-color="#E0BB95"/>
    <stop offset=".4107" stop-color="#DEB892"/>
    <stop offset=".7432" stop-color="#D6B088"/>
    <stop offset="1" stop-color="#CCA47A"/>
  </radialGradient>
  <path d="m78.69 64.46c-12.41-4.71-22.01-4.01-29 1.51-4.84 3.83-22.37 16.31-30.06 24.5-3.67 3.92-0.25 8.33 2.94 10.32 6.25 3.92 12.5 3.61 26.08-4.63 6.94-4.21 11.39-0.7 16.32 2.67 0 0 7.71 6.39 14.5 8.78s22.66-1.28 27.97-9.32c5.87-8.89-3.63-24.29-28.75-33.83z" fill="url(#c)"/>
  <defs>
    <path id="b" d="m74.79 63.14c-2.06-0.62-4.03-1.08-5.93-1.38-7.78-1.23-14.15 0.24-19.16 4.2-4.84 3.83-22.37 16.31-30.06 24.5-3.67 3.92-0.25 8.33 2.94 10.32 6.25 3.92 12.5 3.61 26.08-4.63 6.94-4.21 11.39-0.7 16.32 2.67 0 0 7.71 6.39 14.5 8.78 2.67 0.94 6.73 0.94 11.01 0.11-20.12-0.34-28.01-39.39-28.01-39.39s-0.01-4.12 12.31-5.18z"/>
  </defs>
  <clipPath id="a">
    <use xlink:href="#b"/>
  </clipPath>
  <g clip-path="url(#a)">
    <path d="m63.72 64.34c2.32 0 4.84 0.32 7.52 0.95-2.64 14.23 1.87 28.66 12.39 40.02-1.56-0.07-2.57-0.32-3.17-0.53-6.19-2.18-13.51-8.2-13.58-8.26s-0.14-0.11-0.22-0.17l-0.68-0.47c-3.32-2.29-6.76-4.66-11.22-4.66-2.54 0-5.05 0.77-7.67 2.36-7.56 4.58-12.7 6.63-16.67 6.63-2.15 0-4.09-0.61-6.27-1.98-1.67-1.05-2.95-2.63-3.1-3.86-0.06-0.43-0.02-1.04 0.76-1.87 5.83-6.22 17.78-15.19 24.92-20.54 2.08-1.56 3.73-2.8 4.81-3.65 3.41-2.67 7.39-3.97 12.18-3.97m0-3c-5.5 0-10.16 1.57-14.03 4.62-4.84 3.83-22.37 16.31-30.06 24.5-3.67 3.92-0.25 8.33 2.94 10.32 2.47 1.55 4.94 2.44 7.86 2.44 4.47 0 10.01-2.08 18.22-7.06 2.27-1.38 4.27-1.93 6.12-1.93 3.79 0 6.89 2.33 10.2 4.6 0 0 7.71 6.39 14.5 8.78 1.38 0.48 3.12 0.72 5.08 0.72 1.84 0 3.86-0.21 5.93-0.61-12.97-11.05-20.03-27.57-15.69-44.58-4.01-1.21-7.69-1.8-11.07-1.8z" fill="#BA8F63"/>
  </g>
</svg>

<svg viewBox="0 0 128 128" xmlns="http://www.w3.org/2000/svg">
  <defs>
    <linearGradient id="g" gradientTransform="matrix(1.0274 0 0 1.0036 0 0)" gradientUnits="userSpaceOnUse" x1="5.191923" x2="120.692523" y1="77.316931" y2="77.316931">
      <stop offset="0" stop-color="#E0BB95"/>
      <stop offset=".4107" stop-color="#DEB892"/>
      <stop offset=".7432" stop-color="#D6B088"/>
      <stop offset="1" stop-color="#CCA47A"/>
    </linearGradient>
    <linearGradient id="f" gradientUnits="userSpaceOnUse" x1="20.633" x2="104.68" y1="104.23" y2="104.23">
      <stop offset="0" stop-color="#CCA47A"/>
      <stop offset="1" stop-color="#CCA47A"/>
    </linearGradient>
    <radialGradient id="e" cx="34.449" cy="67.098" gradientUnits="userSpaceOnUse" r="44.572">
      <stop offset=".6" stop-color="#E0BB95"/>
      <stop offset="1" stop-color="#CCA47A"/>
    </radialGradient>
    <linearGradient id="d" gradientUnits="userSpaceOnUse" x1="67.412" x2="15.176" y1="18.589" y2="112.62">
      <stop offset="0" stop-color="#64B5F6"/>
      <stop offset="1" stop-color="#2196F3"/>
    </linearGradient>
    <radialGradient id="c" cx="55.11957" cy="79.549931" gradientTransform="matrix(1.0356 0 0 1.0036 0 0)" gradientUnits="userSpaceOnUse" r="35.227">
      <stop offset="0" stop-color="#E0BB95"/>
      <stop offset=".4107" stop-color="#DEB892"/>
      <stop offset=".7432" stop-color="#D6B088"/>
      <stop offset="1" stop-color="#CCA47A"/>
    </radialGradient>
  </defs>
  <path d="M124,72.49 C124,69.49 121.57,67.03 118.48,66.88 C116,66.76 109.83,68.33 106.34,66.69 C97.73,62.64 62.24,43.96 62.24,43.96 C59.12,42.27 51.47,39.77 47.59,40.74 L19.29,52.02 C16.53,52.71 14.29,54.38 12.86,56.55 C11.82,57.73 10.68,65.93 9.12,73.38 C7.56,80.83 5.65,85.76 5.65,85.76 C4.11,91.44 8.6,95.25 12.59,95.93 C16.58,96.61 21.8,94.16 23.34,88.47 L26.62,72.73 C27.15,70.17 29.26,68.21 31.9,67.82 L41.87,68.18 L38.36,86.13 C38.36,86.13 56.12,108.86 81.23,114.25 C90.44,116.23 99.01,110.47 105.61,110.06 C108.66,109.87 115,110.54 117.79,111.35 C120.89,112.25 124.01,109.97 124.01,106.84 L124.01,72.49 Z" fill="url(#g)"/>
  <path d="M87.7,115.75 C81.34,115.63 71.59,112.02 64.89,109.08 C59.94,106.91 54.31,106.69 49.2,108.5 L44.07,110.31 C39.2,112.03 33.74,110.41 30.7,106.34 L20.63,92.87 L104.68,92.7 C104.68,92.7 103.14,116.05 87.7,115.75 Z" fill="url(#f)"/>
  <path d="M40.57,72.75 L55.59,47.91 L55.49,52.06 C55.39,56.3 58.16,60.11 62.32,61.46 L40.57,72.75 Z" fill="#BA8F63"/>
  <path d="M23.62,110.95 L6.44,123.65 C5.22,124.55 3.7,123.58 4.05,122.12 L8.78,102.38 C8.89,101.93 9.07,101.48 9.32,101.08 L66.28,6.22 C67.49,4.21 69.96,3.41 71.8,4.45 L80.57,9.4 C82.41,10.44 82.92,12.91 81.71,14.93 L24.85,109.58 C24.54,110.12 24.12,110.59 23.62,110.95 Z" fill="#1E88E5"/>
  <path d="M87.73,114.25 C80.81,114.12 69.87,109.63 65.49,107.7 C62.58,106.42 59.49,105.78 56.3,105.78 C53.7,105.78 51.14,106.22 48.7,107.08 L43.57,108.89 C42.45,109.28 41.29,109.48 40.1,109.48 C36.86,109.48 33.8,107.97 31.9,105.44 L30.54,103.63 C30.25,103.25 29.81,103.03 29.34,103.03 C29.29,103.03 29.24,103.03 29.19,103.04 C28.84,103.07 28.5,103.09 28.16,103.09 C25.4,103.09 23.43,101.94 22.31,99.67 C21.37,97.76 21.25,95.72 21.95,93.77 C22.19,93.11 21.94,92.38 21.35,92 C21.1,91.84 20.82,91.76 20.54,91.76 C20.16,91.76 19.78,91.9 19.49,92.18 C17.95,93.68 15.91,94.53 13.89,94.53 C13.52,94.53 13.16,94.5 12.82,94.44 C10.76,94.09 8.82,92.83 7.74,91.15 C6.81,89.69 6.58,88.03 7.06,86.21 C7.32,85.52 9.09,80.75 10.57,73.69 C11.07,71.31 11.51,68.92 11.94,66.6 C12.63,62.9 13.48,58.29 14,57.5 C14.05,57.45 14.05,57.44 14.09,57.38 C15.38,55.43 17.35,54.05 19.64,53.47 C19.71,53.45 19.77,53.43 19.83,53.41 L48.04,42.17 C48.48,42.07 49.01,42.02 49.63,42.02 C53.42,42.02 59.07,43.95 61.52,45.28 C61.89,45.48 97.15,64.03 105.69,68.05 C106.97,68.65 108.61,68.95 110.68,68.95 C112.35,68.95 114.03,68.76 115.52,68.6 C116.6,68.48 117.53,68.38 118.19,68.38 L118.4,68.38 C120.69,68.49 122.49,70.29 122.49,72.49 L122.49,106.84 C122.49,107.7 122.14,108.51 121.51,109.11 C120.88,109.71 120.03,110.05 119.16,110.05 C118.84,110.05 118.51,110 118.19,109.91 C115.66,109.17 110.33,108.53 106.78,108.53 C106.31,108.53 105.88,108.54 105.5,108.57 C102.85,108.73 100.01,109.66 97,110.65 L96.39,110.85 C96.18,110.92 95.99,111.03 95.83,111.18 C93.63,113.22 90.98,114.26 87.97,114.26 L87.73,114.25 Z M21.91,88.01 C21.82,88.35 21.73,88.62 21.63,88.88 C21.39,89.54 21.64,90.28 22.24,90.66 C22.49,90.82 22.77,90.89 23.04,90.89 C23.43,90.89 23.82,90.74 24.11,90.44 C24.91,89.63 25.85,88.93 26.89,88.37 L40.54,80.25 C40.91,80.03 41.16,79.67 41.24,79.25 L43.35,68.48 C43.44,68.02 43.31,67.54 42.99,67.19 C42.7,66.87 42.3,66.7 41.88,66.7 C41.83,66.7 41.79,66.7 41.74,66.71 L33.19,67.51 C29.89,67.99 27.28,70.4 26.59,73.52 L21.91,88.01 Z" fill="url(#e)"/>
  <path d="M49.64,43.52 C53.05,43.52 58.45,45.31 60.85,46.61 C62.3,47.37 96.49,65.37 105.07,69.4 C106.56,70.1 108.4,70.44 110.7,70.44 C112.46,70.44 114.18,70.25 115.7,70.08 C116.69,69.97 117.63,69.87 118.2,69.87 L118.34,69.87 C119.83,69.94 121,71.09 121,72.48 L121,106.83 C121,107.86 120.05,108.54 119.17,108.54 C118.99,108.54 118.8,108.51 118.62,108.46 C115.7,107.61 110.04,107.02 106.79,107.02 C106.29,107.02 105.83,107.03 105.42,107.06 C102.58,107.24 99.65,108.19 96.55,109.21 L95.94,109.41 C95.53,109.54 95.15,109.77 94.83,110.06 C92.89,111.86 90.65,112.74 88,112.74 L87.76,112.74 C83.15,112.65 75.05,110.25 66.09,106.32 C62.99,104.96 59.7,104.27 56.3,104.27 C53.53,104.27 50.8,104.74 48.2,105.66 L43.07,107.47 C42.11,107.81 41.11,107.98 40.1,107.98 C37.33,107.98 34.72,106.69 33.1,104.54 L31.74,102.73 C31.17,101.97 30.28,101.53 29.34,101.53 C29.24,101.53 29.15,101.53 29.05,101.54 C28.75,101.57 28.45,101.58 28.17,101.58 C25.27,101.58 24.21,100.11 23.67,99 C22.9,97.45 22.8,95.85 23.38,94.27 C23.61,93.64 23.61,92.97 23.42,92.36 C24.07,92.28 24.69,91.98 25.18,91.49 C25.88,90.78 26.7,90.17 27.6,89.68 C27.64,89.66 27.67,89.64 27.7,89.62 L41.3,81.53 C42.03,81.09 42.55,80.37 42.71,79.53 L44.82,68.76 C45,67.83 44.74,66.87 44.1,66.17 C43.53,65.54 42.72,65.18 41.88,65.18 C41.79,65.18 41.69,65.18 41.6,65.19 L33.04,66 C32.99,66.01 32.93,66.01 32.88,66.02 C29.07,66.58 25.98,69.42 25.13,73.11 L20.48,87.55 C20.47,87.59 20.45,87.64 20.44,87.68 C20.39,87.88 20.32,88.1 20.22,88.36 C19.99,89 19.98,89.67 20.17,90.28 C19.54,90.36 18.94,90.64 18.46,91.11 C17.22,92.32 15.51,93.04 13.9,93.04 C13.62,93.04 13.34,93.02 13.08,92.97 C11.45,92.69 9.85,91.67 9.01,90.35 C8.33,89.28 8.15,88.04 8.5,86.67 C8.86,85.71 10.59,80.93 12.04,74 C12.54,71.6 12.99,69.2 13.42,66.87 C14.04,63.52 14.81,59.36 15.28,58.31 C15.3,58.28 15.33,58.24 15.35,58.21 C16.43,56.58 18.09,55.41 20.01,54.93 C20.14,54.9 20.27,54.86 20.39,54.81 L48.47,43.61 C48.73,43.57 49.11,43.52 49.64,43.52 M49.64,40.52 C48.89,40.52 48.2,40.59 47.6,40.74 L19.3,52.02 C16.54,52.71 14.3,54.38 12.87,56.55 C11.83,57.73 10.69,65.93 9.13,73.38 C7.57,80.84 5.66,85.75 5.66,85.75 C4.12,91.43 8.61,95.24 12.6,95.92 C13.03,95.99 13.47,96.03 13.92,96.03 C16.19,96.03 18.66,95.11 20.57,93.25 C19.77,95.47 19.82,97.93 21,100.32 C22.5,103.36 25.18,104.57 28.19,104.57 C28.58,104.57 28.97,104.55 29.36,104.51 L30.72,106.32 C32.95,109.3 36.48,110.97 40.12,110.97 C41.45,110.97 42.79,110.75 44.09,110.29 L49.22,108.48 C51.52,107.67 53.92,107.27 56.32,107.27 C59.25,107.27 62.18,107.87 64.91,109.07 C71.61,112.01 81.37,115.62 87.72,115.74 L88.01,115.74 C91.73,115.74 94.63,114.35 96.88,112.26 C100.05,111.23 102.99,110.22 105.62,110.05 C105.97,110.03 106.37,110.02 106.81,110.02 C110.1,110.02 115.34,110.63 117.8,111.34 C118.27,111.48 118.73,111.54 119.19,111.54 C121.77,111.54 124.02,109.49 124.02,106.83 L124.02,72.49 C124.02,69.49 121.59,67.03 118.5,66.88 C118.41,66.88 118.31,66.87 118.22,66.87 C116.53,66.87 113.54,67.44 110.72,67.44 C109.12,67.44 107.59,67.26 106.37,66.69 C97.76,62.64 62.27,43.96 62.27,43.96 C59.61,42.53 53.73,40.52 49.64,40.52 Z M23.04,89.39 C23.15,89.09 23.25,88.79 23.34,88.47 L28.04,73.9 C28.57,71.34 30.68,69.38 33.32,68.99 L41.87,68.19 L39.76,78.96 L26.16,87.05 C24.98,87.7 23.93,88.49 23.04,89.39 Z" fill="#BA8F63"/>
  <path d="M23.62,110.95 L6.44,123.65 C5.22,124.55 3.7,123.58 4.05,122.12 L8.78,102.38 C8.89,101.93 9.07,101.48 9.32,101.08 L66.28,6.22 C67.49,4.21 69.96,3.41 71.8,4.45 L80.57,9.4 C82.41,10.44 82.92,12.91 81.71,14.93 L24.85,109.58 C24.54,110.12 24.12,110.59 23.62,110.95 Z" fill="url(#d)"/>
  <path d="M70.04,7 C70.15,7 70.25,7.02 70.33,7.07 L79.1,12.02 C79.14,12.04 79.27,12.12 79.34,12.36 C79.38,12.51 79.44,12.9 79.14,13.39 L22.28,108.05 C22.16,108.24 22.01,108.42 21.83,108.55 L7.92,118.83 L11.69,103.08 C11.73,102.92 11.79,102.77 11.88,102.62 L68.86,7.77 C69.17,7.24 69.68,7 70.04,7 M70.04,4 C68.6,4 67.13,4.81 66.28,6.22 L9.31,101.07 C9.06,101.48 8.88,101.92 8.77,102.37 L4.04,122.11 C3.79,123.19 4.54,124 5.44,124 C5.77,124 6.12,123.89 6.44,123.65 L23.62,110.95 C24.12,110.58 24.54,110.12 24.86,109.58 L81.72,14.93 C82.93,12.92 82.42,10.44 80.58,9.4 L71.81,4.45 C71.26,4.15 70.65,4 70.04,4 Z" fill="#424242" opacity="0.2"/>
  <path d="M78.69,64.46 C66.28,59.75 56.68,60.45 49.69,65.97 C44.85,69.8 27.32,82.28 19.63,90.47 C15.96,94.39 19.38,98.8 22.57,100.79 C28.82,104.71 35.07,104.4 48.65,96.16 C55.59,91.95 60.04,95.46 64.97,98.83 C64.97,98.83 72.68,105.22 79.47,107.61 C86.26,110 102.13,106.33 107.44,98.29 C113.31,89.4 103.81,74 78.69,64.46 Z" fill="url(#c)"/>
  <path d="M63.72,64.34 C58.93,64.34 54.95,65.64 51.54,68.31 C50.46,69.16 48.81,70.4 46.73,71.96 C39.59,77.31 27.64,86.28 21.81,92.5 C21.03,93.33 20.99,93.94 21.05,94.37 C21.2,95.6 22.48,97.18 24.15,98.23 C26.33,99.6 28.27,100.21 30.42,100.21 C34.39,100.21 39.53,98.16 47.09,93.58 C49.71,91.99 52.22,91.22 54.76,91.22 C59.22,91.22 62.66,93.59 65.98,95.88 L66.66,96.35 C66.74,96.41 66.81,96.46 66.88,96.52 C66.95,96.58 74.27,102.6 80.46,104.78 C80.853,104.918 81.423,105.073 82.208,105.183 C84.695,106.724 87.443,107.654 90.468,107.71 L90.472,107.713 C86.199,108.54 82.146,108.539 79.48,107.6 C72.69,105.21 64.98,98.82 64.98,98.82 C64.746,98.66 64.513,98.5 64.281,98.34 C59.622,95.134 55.27,92.14 48.66,96.15 C35.08,104.39 28.83,104.7 22.58,100.78 C19.39,98.79 15.97,94.38 19.64,90.46 C27.33,82.27 44.86,69.79 49.7,65.96 C51.296,64.699 53.029,63.69 54.902,62.941 C57.559,61.88 60.495,61.34 63.72,61.34 C66.126,61.34 68.684,61.639 71.404,62.248 C72.507,62.495 73.634,62.792 74.79,63.14 C71.406,63.431 68.952,63.953 67.173,64.557 C65.979,64.413 64.827,64.34 63.72,64.34 Z" fill="#BA8F63"/>
</svg>
